X:879
L:1/8
M:9/8
K:Bb
 B3 B2 d fdB | C2 c c2 d efg | B,2 B B2 d fdB | GAB cdB AGF | B3 B2 d fdB | C2 c c2 d efg | 
 fga bag fed | edc FdA B3 || f3 d2 b fed | e3 c2 d efg | f2 b d2 B f2 d | GAB cdB AGF | 
 f3 d2 b fed | e3 c2 d efg | fga bag fed | edc FdA B3 ||

